icons/chartjs-dark.svg

<svg width="256" height="256" viewBox="0 0 256 256" fill="none" xmlns="http://www.w3.org/2000/svg">
<rect width="256" height="256" rx="60" fill="#282828"/>
<path d="M210.922 128.725C182.676 129.279 188.56 147.159 168.653 151.682C148.431 156.276 145.239 102.293 125.022 102.293C104.802 102.293 100.323 154.73 75.0054 190.731L74.2844 191.751L128.565 223.085L210.924 175.541V128.725H210.922Z" fill="#36A2EB"/>
<path d="M210.922 127.097C201.467 114.962 195.053 101.01 181.255 101.01C156.835 101.01 163.261 140.845 136.274 140.845C109.284 140.845 106.447 97.9974 75.8717 138.275C66.1293 151.109 58.2874 165.417 52.1288 178.959L128.562 223.083L210.921 175.54L210.922 127.097Z" fill="#FFCE56"/>
<path opacity="0.8" d="M46.2039 143.598C55.4702 117.938 59.4682 97.1551 77.1585 97.1551C104.144 97.1551 110.57 172.97 133.703 165.257C156.835 157.548 154.265 116.428 190.249 116.428C197.097 116.428 204.092 120.624 210.922 127.413V175.54L128.564 223.083L46.2026 175.54L46.2039 143.598Z" fill="#FE6184"/>
<path d="M128.499 229.045L41 178.534V77.5112L128.499 27L216 77.5112V178.534L128.499 229.045ZM51.2803 172.6L128.499 217.176L205.72 172.6V83.4463L128.499 38.8701L51.2803 83.4463V172.6Z" fill="#E7E9ED"/>
</svg>

<svg xmlns="http://www.w3.org/2000/svg" width="256" height="256" fill="none"><rect width="256" height="256" fill="#282828" rx="60"/><path fill="#36A2EB" d="M210.922 128.725c-28.246.554-22.362 18.434-42.269 22.957-20.222 4.594-23.414-49.389-43.631-49.389-20.22 0-24.699 52.437-50.017 88.438l-.72 1.02 54.28 31.334 82.359-47.544v-46.816z"/><path fill="#FFCE56" d="M210.922 127.097c-9.455-12.135-15.869-26.087-29.667-26.087-24.42 0-17.994 39.835-44.981 39.835-26.99 0-29.827-42.848-60.402-2.57-9.743 12.834-17.585 27.142-23.743 40.684l76.433 44.124 82.359-47.543z"/><path fill="#FE6184" d="M46.204 143.598c9.266-25.66 13.264-46.443 30.955-46.443 26.985 0 33.411 75.815 56.544 68.102 23.132-7.709 20.562-48.829 56.546-48.829 6.848 0 13.843 4.196 20.673 10.985v48.127l-82.358 47.543-82.361-47.543z" opacity=".8"/><path fill="#E7E9ED" d="M128.499 229.045 41 178.534V77.511L128.499 27 216 77.511v101.023zM51.28 172.6l77.219 44.576L205.72 172.6V83.446L128.499 38.87 51.28 83.446z"/></svg>
